X:9095
T:La Xiringosa
R:Xiringosa
C:Tradicional
S:Música Tradicional Asturiana, (C) Tello & Tito. Asturies, 2001.
S:http://pagina.de/MusTradAst <telloytito@asturies.org>
A:Asturies
Z:Les cuarenta principales
M:6/8
L:1/8
Q:3/8=116
K:C
E2 F
|G2 G G2 E|C2 C DDD|C2 C DDD|E E2-EEF|
|G2 G GFE|CCC DDD|E E2-EEF|
|GGG GFE|C2 C DDD|C2 C D2 D|C3 


